!!!!SEGMENT: pl-wtm--r-513-2-m_moniuszko-stanislaw--flis-dumka-zosi.krn
!!!cenid: 18xx:2978
!!!COM: Moniuszko, Stanisław
!!!COM-rismID: pe30008351
!!!CDT: 1819/05/05-1872/06/04
!!!CNT: Polish
!!!GTL: Flis
!!!OTL: Dumka Zosi
!!!OMV: 002
!!!PDT: 1858
!!!AGN: Secular
!!!SMS-siglum: PL-Wtm
!!!SMS-shelfmark: R 513-2/M
!!!SMS-shelfwork: 001-002 G
!!!SMS-variant:
!!!SMS-altvar:
!!!NIFC-rismSourceID: 1001086073
!!!NIFC-rismChildID: 1001086073
!!!NIFC-islandoraID:
!!!URL-pdf-islandora:
!!!URL-scan:
!!!ONB-nifc:
!!!AIN: 1 empty 1 forte
!!!key:
**kern	**fing	**kern	**dynam	**kern	**text	**text	**dynam
*group1	*	*group1	*group1	*	*	*	*
*part2	*	*part2	*part2	*part1	*part1	*part1	*part1
*staff3	*	*staff2	*	*staff1	*staff1	*staff1	*
*Iforte	*	*Iempty	*	*Iempty	*	*	*
*I"fortepian	*	*	*	*I"głos	*	*	*
*>[A,B,B,C]	*	*>[A,B,B,C]	*	*>[A,B,B,C]	*	*	*
*clefF4	*	*clefG2	*	*clefG2	*	*	*
*k[b-e-a-d-]	*	*k[b-e-a-d-]	*	*k[b-e-a-d-]	*	*	*
*f:	*	*f:	*	*f:	*	*	*
*M3/4	*	*M3/4	*	*M3/4	*	*	*
=1	=1	=1	=1	=1	=1	=1	=1
*>A	*	*>A	*	*>A	*	*	*
*	*	*	*	*all\right	*	*	*
!	!	!	!	!LO:TX:t=P:problem=all\right&colon; global	!	!	!
!	!	!LO:TX:a:i:t=Andantino.	!	!LO:TX:a:t=Dumka Zosi.\n(&colon; śpiewana przez pannę Rivoli &colon;):color=blue	!	!	!
2.r	.	(>4c/	p	2.ryy	.	.	.
.	.	8dn/L	.	.	.	.	.
.	.	8en/	.	.	.	.	.
.	.	8f/	.	.	.	.	.
.	.	8g/J	.	.	.	.	.
=2	=2	=2	=2	=2	=2	=2	=2
2.r	.	8a-/L	.	2.ryy	.	.	.
.	.	8b-/	.	.	.	.	.
.	.	8a-/	.	.	.	.	.
.	.	8f/J	.	.	.	.	.
.	.	4cc/	.	.	.	.	.
=3	=3	=3	=3	=3	=3	=3	=3
.	.	8qee-/	.	.	.	.	.
4r	.	8.dd-/L	.	2.ryy	.	.	.
.	.	16cc/Jk	.	.	.	.	.
(4d-\	.	4f/	.	.	.	.	.
4c\)	.	4g/ 4en/	.	.	.	.	.
=4	=4	=4	=4	=4	=4	=4	=4
*^	*	*	*	*	*	*	*
*	*2\right	*	*	*	*	*	*	*
(<4c/	2F^>\	.	2a-/ 2f/)	.	2.ryy	.	.	.
8Bn/L	.	.	.	.	.	.	.	.
8c/	.	.	.	.	.	.	.	.
8A-/	4r	.	(>4a-/ 4f/	.	.	.	.	.
8F/J)	.	.	.	.	.	.	.	.
*v	*v	*	*	*	*	*	*	*
=5	=5	=5	=5	=5	=5	=5	=5
4C/|	.	8.g/L 8.en/	.	2.ryy	.	.	.
.	.	16a-/Jk 16f/	.	.	.	.	.
4c\|	.	4b-/ 4g/|	.	.	.	.	.
4C/|	.	4cc/ 4e/)|	.	.	.	.	.
!!LO:LB:g=original
=6	=6	=6	=6	=6	=6	=6	=6
*^	*	*	*	*	*	*	*
(<8d-/L	2F\	.	2a-/ 2f/	.	2.ryy	.	.	.
8c/	.	.	.	.	.	.	.	.
8Bn/	.	.	.	.	.	.	.	.
8c/	.	.	.	.	.	.	.	.
8A-/)	4r	.	4f/	.	.	.	.	.
8F/J	.	.	.	.	.	.	.	.
*v	*v	*	*	*	*	*	*	*
=7	=7	=7	=7	=7	=7	=7	=7
4C/	.	8.g/L 8.en/	.	2.ryy	.	.	.
.	.	16a-/Jk 16f/	.	.	.	.	.
4c\	.	4b-/ 4g/	.	.	.	.	.
4En\	.	4dd-/ 4b-/	.	.	.	.	.
=8!|:	=8!|:	=8!|:	=8!|:	=8!|:	=8!|:	=8!|:	=8!|:
*>B	*	*>B	*	*>B	*	*	*
*	*	*^	*	*	*	*	*
!	!	!LO:TX:b:i:t=piangente.	!	!LO:DY:rj	!	!	!	!
(4F/ 4FF/	.	(8cc/L	4a-\	f	2.ryy	.	.	.
.	.	8ff/J)	.	.	.	.	.	.
4G-X/ 4GG-X/)	.	(8.ff/L	4b-\	.	.	.	.	.
.	.	16ee-X/Jk)	.	>	.	.	.	.
(4BB-/ 4BBB-/	.	(8.ee-/L	4b-\ 4f\	.	.	.	.	.
.	.	16dd-/Jk)	.	.	.	.	.	.
=9	=9	=9	=9	=9	=9	=9	=9	=9
4C/ 4CC/)	.	(8.dd-/L	4en\	.	2.ryy	.	.	.
.	.	16cc/Jk)	.	.	.	.	.	.
(4EE-/	.	(8.cc/L	4g-X\ 4e-X\	.	.	.	.	.
.	.	16b-/Jk)	.	.	.	.	.	.
4FF/)	.	(8.b-/L	4e-\ 4c\	]	.	.	.	.
.	.	16an/Jk)	.	.	.	.	.	.
*	*	*v	*v	*	*	*	*	*
=10	=10	=10	=10	=10	=10	=10	=10
!	!	!	!LO:DY:t=p	!	!	!	!
8qBBB-/	.	8qd-/	p	.	.	.	.
2.BB-/	.	8.b-/L	.	2.ryy	.	.	.
.	.	16cc/Jk	.	.	.	.	.
.	.	(4dd-/	.	.	.	.	.
.	.	4en/)	.	.	.	.	.
!!LO:LB:g=original
=11	=11	=11	=11	=11	=11	=11	=11
*^	*	*	*	*	*	*	*
(4A-/	(4.BBn\	.	(>8.f/L	pp	8ryy	.	.	.
.	.	.	.	.	8ryy	.	.	.
.	.	.	16g/Jk	.	.	.	.	.
8F/)	.	.	4.a-/	.	2ryy	.	.	.
8r	8C\	.	.	.	.	.	.	.
4r	4Dn\)	.	.	.	.	.	.	.
.	.	.	8Bn/)	.	.	.	.	.
*v	*v	*	*	*	*	*	*	*
=12	=12	=12	=12	=12	=12	=12	=12
!	!	!LO:TUP:b	!	!	!	!	!
4A-\ 4F\ 4C\|	.	(>12c/L	<	2.ryy	.	.	.
.	.	12en/	.	.	.	.	.
.	.	12f/J	.	.	.	.	.
*	*	*Xtuplet	*	*	*	*	*
4r	.	12g/L	.	.	.	.	.
.	.	12a-/	.	.	.	.	.
.	.	12b-/J	.	.	.	.	.
4r	.	12cc/L	.	.	.	.	.
.	.	12een/	.	.	.	.	.
.	.	12ff/J)	[	.	.	.	.
=13	=13	=13	=13	=13	=13	=13	=13
4r	.	(>2aa-/ 2a-/	sf	2.ryy	.	.	.
*ped	*	*	*	*	*	*	*
8C/ 8CC/	.	.	.	.	.	.	.
8r	.	.	.	.	.	.	.
(4en\ (4B-\	.	4gg/ [4cc/ 4g/	>]	.	.	.	.
=14	=14	=14	=14	=14	=14	=14	=14
*Xped	*	*	*	*	*	*	*
4f\ 4A-\ 4F\))	.	4ff/ 4cc/] 4f/)	.	2.ryy	.	.	.
*Xtuplet	*	*	*	*	*	*	*
(12Bn^<\L	.	(12bn^/L	.	.	.	.	.
12c\	.	12cc/	.	.	.	.	.
12A-\J	.	12a-/J	.	.	.	.	.
12F\L	.	12f/L	.	.	.	.	.
12C\	.	12c/)	.	.	.	.	.
12AA-\J)	.	12A-/J	.	.	.	.	.
=15	=15	=15	=15	=15	=15	=15	=15
*^	*	*	*	*	*	*	*
4ryy	2.FF\	.	4F</	.	2.ryy	.	.	.
4D-\	.	.	4f/ 4B-</ 4F</|	.	.	.	.	.
4BB-\	.	.	4f/ 4d-/ 4B-</ 4F</|	.	.	.	.	.
*v	*v	*	*	*	*	*	*	*
!!LO:LB:g=original
=16	=16	=16	=16	=16	=16	=16	=16
!	!	!	!	!	!	!	!LO:DY:a
*	*	*	*	*	*color:purple	*	*
2FF\	.	4r	p	8f/	Ach	(x) U-	p
.	.	.	.	8cc\	tyś	-snę-	.
.	.	4f/ 4c/ 4A-</ 4F</	.	4cc\	mo-	-ła-	.
4rGG	.	4f/ 4c/ 4A-</ 4F</	.	4cc\	-że	-bym	.
=17	=17	=17	=17	=17	=17	=17	=17
(<2BB-\	.	4r	.	8cc\	śród	pod	.
.	.	.	.	8b-\	tej	mo-	.
.	.	4f/ 4d-/ 4B-</ 4F</	.	4.dd-\	bu-	-gi-	.
4C\	.	4f/ 4c/ 4A-</ 4F</	.	.	.	.	.
.	.	.	.	8cc\	-rzy	-łą	.
=18	=18	=18	=18	=18	=18	=18	=18
2D-\	.	4r	.	8cc\	w Wiś-	za-	.
.	.	.	.	8b-\	-le	-sty-	.
.	.	4f/ 4B-/ 4F</	.	4f/	zna-	-gła-	.
4C\	.	4en/ 4c/ 4G</	.	4g/	-łaś	-by	.
=19	=19	=19	=19	=19	=19	=19	=19
4FF\)	.	4r	.	2a-/	skon.	Krew	.
4rGG	.	4f/ 4c</ 4A-</ 4F</	.	.	.	.	.
4rGG	.	4f/ 4c</ 4A-</ 4F</	.	4r	.	.	.
=20	=20	=20	=20	=20	=20	=20	=20
!	!	!	!LO:DY:t=piu f.	!	!	!	!LO:DY:t=piu f.
(<2F\	.	4r	f	8f/	Lecz	Już	f
.	.	.	.	8cc\	mi	by	.
.	.	4f/ 4c</ 4A-</	.	4cc\	ser-	słon-	.
4E-\)	.	4f/ 4c</ 4A-</	.	4cc\	-ce	-ko	.
!!LO:PB:g=original
=21	=21	=21	=21	=21	=21	=21	=21
.	.	.	.	16qqcc/LL	.	.	.
.	.	.	.	16qqdd-/JJ	.	.	.
2.D-\	.	4r	.	8cc\	mo-	nie	.
.	.	.	.	8b-\	-je	jaś-	.
.	.	4f/ 4B-/	.	4.ff\	wró-	-nia-	.
.	.	4f-X/ 4B-/ 4A-/	.	.	.	.	.
.	.	.	.	8ff-X\	-ży	-ło	.
=22	=22	=22	=22	=22	=22	=22	=22
(<2.E-\	.	4r	.	8ee-\	że	ścichł-	.
.	.	.	.	8dd-\	cię	-by	.
.	.	4e-/ 4A-</ 4F</	.	4a-/	u-	fli-	.
.	.	4e-/ 4d-/ 4B-</ 4G</	.	4b-/	-strzegł	-sow	.
=23	=23	=23	=23	=23	=23	=23	=23
4AA-\)	.	4r	.	4cc\	On!	śpiew	.
4r	.	4e-/ 4c/ 4A-</	.	4r	.	.	.
4r	.	4e-/ 4c/ 4A-</	.	4r	.	.	.
=24	=24	=24	=24	=24	=24	=24	=24
!	!	!	!	!	!	!	!LO:DY:a
8D-\	.	4r	.	8cc\	O	.	<
8r	.	.	.	8b-\	mój	.	[
!	!	!	!	!	!	!	!LO:DY:a
(2D-\ 2DD-\	.	2f/ 2B-</ 2F<^^>/	.	4.dd-\	Fran-	.	>
.	.	.	.	8cc\	-ku!	.	]
=25	=25	=25	=25	=25	=25	=25	=25
!	!	!	!	!	!	!	!LO:DY:a
8BB-\)	.	4r	.	8cc\	mo-	.	<
8r	.	.	.	8b-\	-je	.	[
!	!	!	!	!	!	!	!LO:DY:a
2BB-\ 2BBB-\	.	2f/ 2d-/ 2F<^^>/	.	4.dd-\	kro-	.	>
.	.	.	.	8cc\	-cie!	.	]
!!LO:LB:g=original
=26	=26	=26	=26	=26	=26	=26	=26
4C/	.	4r	.	8cc\	gdy-	.	.
.	.	.	.	8b-\	-byś	.	.
4r	.	4g/ 4en/ 4c'/	.	4g/	ty	.	.
4r	.	4b-/ 4g/ 4e/ 4c'/	.	4b-\	o-	.	.
=27	=27	=27	=27	=27	=27	=27	=27
4F\	.	4r	.	8.a-/	-puś-	.	.
.	.	.	.	16f/	-cił	.	.
4r	.	4a-/ 4f/ 4c/	.	4cc\	świat	.	.
4r	.	4f/ 4c/ 4A-/	.	4r	.	.	.
=28	=28	=28	=28	=28	=28	=28	=28
*^	*	*^	*	*	*	*	*
!	!	!	!	!	!	!	!	!	!LO:DY:a
4ryy	8BB-\	.	4r	4ryy	.	8cc\	w snach-	.	<
.	8r	.	.	.	.	8b-\	-bym	.	[
*	*	*	*	*2\right	*	*	*	*	*
!	!	!	!	!	!	!	!	!	!LO:DY:a
2B-/ 2F/	(>2BB-\ 2BBB-\	.	2f^^/	2d-\	.	4.dd-\	zwię-	.	>
.	.	.	.	.	.	8cc\	-dła	.	]
=29	=29	=29	=29	=29	=29	=29	=29	=29	=29
!	!	!	!	!	!	!	!	!	!LO:DY:a
4ryy	8GG\)	.	4r	4ryy	.	8cc\	i	.	<
.	8r	.	.	.	.	8b-\	w tę-	.	[
!	!	!	!	!	!	!	!	!	!LO:DY:a
2B-/ 2F/	2GG\ 2GGG\	.	2f^^;/	2d-\	.	4.ee-;\	-skno-	.	>
.	.	.	.	.	.	8dd-\	-cie	.	]
*v	*v	*	*	*	*	*	*	*	*
*	*	*v	*v	*	*	*	*	*
=30	=30	=30	=30	=30	=30	=30	=30
!	!	!	!	!	!	!	!LO:DY:t=p
4GG\	.	(8en/L 8c/	.	8cc\	jak	.	p
.	.	8G</J	.	8g/	w je-	.	.
4r	.	4c</ 4En</)	.	4cc\	-sie-	.	.
4BB-\	.	4d-</ 4G</ 4F</	.	(16bn/KL	-ni	.	.
.	.	.	.	8.g/J)	.	.	.
!!LO:LB:g=original
=31	=31	=31	=31	=31	=31	=31	=31
*	*	*	*	*2\right	*	*	*
4C\	.	4r	.	2.cc\	kwiat!	.	.
4rGG	.	4c</ 4G</ 4En</	.	.	.	.	.
4rGG	.	4cc/ 4c/	.	.	.	.	.
=32||	=32||	=32||	=32||	=32||	=32||	=32||	=32||
*k[b-]	*	*k[b-]	*	*k[b-]	*	*	*
*ped	*	*	*	*	*	*	*
!	!	!	!LO:DY:rj:t=p	!LO:TX:a:i:t=dolcissimo.	!	!	!
2.c\ 2.F\	.	4r	p	8cc\	Fran-	.	.
.	.	.	.	8cc\	-ku	.	.
!	!	!LO:TX:b:i:t=dolciſsimo	!	!	!	!	!
.	.	16qqdd/	.	.	.	.	.
.	.	4cc/ 4a/ 4f/	.	4cc\	mo-	.	.
.	.	4cc/ 4f/	.	8b-\L	-je	.	.
*Xped	*	*	*	*	*	*	*
.	.	.	.	8a\J	.	.	.
=33	=33	=33	=33	=33	=33	=33	=33
*ped	*	*	*	*	*	*	*
2.c\ 2.F\	.	4r	.	(8g\L	kro-	.	.
.	.	.	.	8dd\J)	.	.	.
.	.	8qdd/	.	.	.	.	.
.	.	4cc/ 4b-/ 4e/	.	4.cc\	-cie!	.	.
.	.	4cc/ 4b-/ 4e/	.	.	.	.	.
*Xped	*	*	*	*	*	*	*
.	.	.	.	8r	.	.	.
=34	=34	=34	=34	=34	=34	=34	=34
*	*	*	*	*^	*	*	*
*ped	*	*	*	*	*	*	*	*
2.c\ 2.F\	.	4r	.	(8.ff\	4ryy	Fran-	.	.
.	.	.	.	16cc\)	.	-ku	.	.
.	.	8qdd/	.	.	.	.	.	.
*	*	*	*	*	*Xtuplet	*	*	*
*	*	*	*	*	*cue	*	*	*
.	.	4cc/ 4a/ 4f/	.	(4cc\	12cc/L	mo-	.	.
.	.	.	.	.	12dd/	.	.	.
.	.	.	.	.	12cc/J	.	.	.
*	*	*	*	*	*Xcue	*	*	*
.	.	4cc/ 4f/	.	8.b-\)	4ryy	.	.	.
*Xped	*	*	*	*	*	*	*	*
.	.	.	.	16a\	.	-je	.	.
*	*	*	*	*v	*v	*	*	*
=35	=35	=35	=35	=35	=35	=35	=35
*ped	*	*	*	*tuplet	*	*	*
!	!	!	!	!LO:TX:t=P:problem=klamra łukowa	!	!	!
!	!	!	!	!LO:TUP:b	!	!	!
2.c\ 2.F\	.	4r	.	12g/L	kro-	.	.
.	.	.	.	12b-/	.	.	.
.	.	.	.	12dd/J	.	.	.
.	.	8qdd/	.	.	.	.	.
.	.	4cc/ 4b-/ 4e/	.	4cc\	-cie!	.	.
.	.	4cc/ 4b-/ 4e/	.	4r	.	.	.
*Xped	*	*	*	*	*	*	*
.	.	.	.	.	.	.	.
!!LO:PB:g=original
=36	=36	=36	=36	=36	=36	=36	=36
*ped	*	*	*	*	*	*	*
!	!	!	!LO:DY:rj	!	!	!	!LO:DY:a
4F/ 4FF/	.	8r	f	8cc\	gdy-	.	f
.	.	8ee-X/	.	8ee-X\	-byś	.	.
4f\ 4c\	.	4ee-/ 4a/	.	4ee-^\	ty	.	.
*Xped	*	*	*	*	*	*	*
4c\ 4F\	.	4ee-/ 4a/ 4f/	.	4ee-^\	o-	.	.
=37	=37	=37	=37	=37	=37	=37	=37
*^	*	*	*	*	*	*	*
!	!	!	!	!	!	!	!	!LO:DY:a
4r	2.BBB-\	.	4r	.	8ee\	-puś-	.	>
.	.	.	.	.	8dd\	-cił	.	]
4B-/	.	.	4g/ 4d/	>	4g/	świat	.	.
4B-/	.	.	4g/ 4f/ 4d-X/	]]	4r	.	.	.
=38	=38	=38	=38	=38	=38	=38	=38	=38
!	!	!	!	!	!	!	!	!LO:DY:rj:t=p
4r	2.CC\	.	4r	p	8.g/	zwię-	.	p
.	.	.	.	.	16b-/	-dła-	.	.
4G/	.	.	4b-/ 4e/ 4c/	.	4b-/	-bym	.	.
4c/	.	.	4b-/ 4g/ 4e/	.	4b-/	w tęsk-	.	.
*v	*v	*	*	*	*	*	*	*
=39	=39	=39	=39	=39	=39	=39	=39
2.F\	.	4r	.	(8b-/L	-no-	.	.
.	.	.	.	8a/J)	.	.	.
.	.	4a/ 4f/ 4c/	.	4cc\	-cie!	.	.
.	.	4cc/ 4a/ 4f/	.	4r	.	.	.
=40	=40	=40	=40	=40	=40	=40	=40
*	*	*^	*	*	*	*	*
!	!	!	!	!LO:DY:rj	!	!	!	!LO:DY:a
4F/ 4FF/	.	8cc/L	4a\	mf	8cc\	gdy-	.	mf
.	.	8ee-X/J	.	.	8ee-X\	-byś	.	.
!	!	!	!	!LO:HP:t=cres.	!	!	!	!
4c\ 4F\	.	4ee-/ 4a/	2ryy	<	4ee-^^\	ty	.	.
4f\ 4c\	.	4ee-/ 4a/ 4e-X/	.	.	4ee-^^\	o-	.	.
!!LO:PB:g=original
=41	=41	=41	=41	=41	=41	=41	=41	=41
*	*	*ped	*	*	*	*	*	*
4BB-/ 4BBB-/	.	8.ee-X/L 8.a-X/ 8.e-X/	4ryy	.	8.ee-X^^\	-puś-	.	.
!	!	!	!	!	!LO:TX:a:i:t=molto ralent.	!	!	!
.	.	16dd/Jk 16a-/ 16d/	.	.	16dd\	-cił	.	.
!	!	!LO:TX:a:i:t=molto ralent.	!	!	!	!	!	!LO:DY:a
4f\ 4B-\ 4F\	.	2dd/	4an\ 4d\	.	4.dd\	świat	.	<
4f\ 4B-\	.	.	(>4a\ 4d\	.	.	.	.	.
*	*	*Xped	*	*	*	*	*	*
.	.	.	.	.	8r	.	.	.
=42	=42	=42	=42	=42	=42	=42	=42	=42
*	*	*ped	*	*	*	*	*	*
4EE/	.	8dd/L	4g#X\)	.	8dd\	zwię-	.	[
!	!	!	!	!	!	!	!	!LO:DY:a
.	.	8dd#X/J	.	.	8dd#X\	-dła-	.	>
4Bn\ 4E\ 4BBn\	.	(4.ee/	4g#\ 4e\	.	4.ee\	-bym	.	.
*	*	*Xped	*	*	*	*	*	*
.	.	.	.	.	.	.	.	.
4B\ 4E\	.	.	4g#\ 4e\	.	.	.	.	]
.	.	8bn/)	.	.	8bn\	w tęsk-	.	.
*	*	*v	*v	*	*	*	*	*
=43	=43	=43	=43	=43	=43	=43	=43
4AA/	.	4r	.	(8dd\L	-no-	.	.
.	.	.	.	8cc#X\J)	.	.	.
4c\ 4A'\	.	4cc/ 4a/ 4e'/	.	4ccn\	-cie!	.	.
4c\ 4G\ 4C'\	.	4cc/ 4b-X/ 4e'/	.	4r	.	.	.
=44	=44	=44	=44	=44	=44	=44	=44
*^	*	*	*	*	*	*	*
*ped	*	*	*	*	*	*	*	*
*tuplet	*	*	*	*	*	*	*	*
!LO:TX:t=P:problem=klamra łukowa	!	!	!	!	!LO:TX:a:i:t=a tempo un poco piu lento.	!	!	!LO:DY:rj
!LO:TUP:b	!	!	!	!	!	!	!	!
12FF/L	4ryy	.	4r	pp	(8.ff\	Fran-	.	pp
12C/	.	.	.	.	.	.	.	.
12F/J	.	.	.	.	.	.	.	.
.	.	.	.	.	16cc\)	-ku	.	.
2A/	(4A\	2	4r	.	4cc\	mo-	.	.
.	.	.	(8qdd/	.	.	.	.	.
!	!	!	!LO:S:s=1:note:problem=note-level slur	!	!	!	!	!
.	8c\ 8F'\)	.	8cc/) 8a/ 8f/	.	8b-\L	-je	.	.
*Xped	*	*	*	*	*	*	*	*
.	8r	.	8r	.	8a\J	.	.	.
=45	=45	=45	=45	=45	=45	=45	=45	=45
!LO:TX:t=P:problem=klamra łukowa	!	!	!	!	!	!	!	!
!LO:TUP:b	!	!	!	!	!	!	!	!
12FF/L	4ryy	.	4r	.	(8g\L	kro-	.	.
12C/	.	.	.	.	.	.	.	.
.	.	.	.	.	8dd\J)	.	.	.
12F/J	.	.	.	.	.	.	.	.
(4E/	2E\	4	4r	.	4cc\	-cie!	.	.
.	.	.	(8qdd/	.	.	.	.	.
!	!	!	!LO:S:s=1:note:problem=note-level slur	!	!	!	!	!
8c/ 8G/)	.	.	8cc/) 8b-/ 8g/	.	4r	.	.	.
8r	.	.	8r	.	.	.	.	.
!!LO:LB:g=original
=46	=46	=46	=46	=46	=46	=46	=46	=46
!LO:TX:t=P:problem=klamra łukowa	!	!	!	!	!	!	!	!
!LO:TUP:b	!	!	!	!	!	!	!	!
12FF/L	4ryy	.	4r	.	8.ff\	Fran-	.	.
12C/	.	.	.	.	.	.	.	.
12F/J	.	.	.	.	.	.	.	.
.	.	.	.	.	16cc\	-ku	.	.
(4A/	2A\	.	4r	.	(4cc\	mo-	.	.
.	.	.	.	.	16qqdd/LL	.	.	.
.	.	.	16qqdd/	.	16qqcc/JJ	.	.	.
8c/ 8F/)	.	.	8cc/ 8a/ 8f/	.	8b-\)	.	.	.
8r	.	.	8r	.	8a\	-je	.	.
=47	=47	=47	=47	=47	=47	=47	=47	=47
!LO:TUP:b	!	!	!	!	!	!	!	!
(>12FF/L	4ryy	.	4r	.	12g\L	kro-	.	.
12C/	.	.	.	.	12b-\	.	.	.
12F/J)	.	.	.	.	12dd\J	.	.	.
!LO:N:vis=2	!	!	!	!	!	!	!	!
(<4E/	2E\	.	4r	.	4cc\	-cie!	.	.
.	.	.	8qdd/	.	.	.	.	.
8c/ 8G/)	.	.	8cc/ 8b-/ 8g/	.	4r	.	.	.
8r	.	.	8r	.	.	.	.	.
*v	*v	*	*	*	*	*	*	*
=48	=48	=48	=48	=48	=48	=48	=48
*	*	*^	*	*	*	*	*
*ped	*	*	*	*	*	*	*	*
*Xtuplet	*	*	*	*	*	*	*	*
!	!	!	!LO:TX:b:t=di-mi-nu-en-do.:ext2=cd:problem=dynamics with extension lines	!LO:HP:b:t=di-mi-nu-en-do.	!	!	!	!
(12FF/L	.	(8.cc/L	4a\	>	4r	.	.	.
12C/	.	.	.	.	.	.	.	.
12F/J	.	.	.	.	.	.	.	.
.	.	16ff/Jk	.	.	.	.	.	.
4A\)|	.	4ff/	4r	.	8r	.	.	.
.	.	.	.	.	8cc\	ach	.	.
8c\: 8A\: 8F:\ 8C\:|	.	8.cc/L	(>4f\	.	8.cc\	gdy-	.	.
8r	.	.	.	.	.	.	.	.
.	.	16ff/Jk	.	.	16cc\	-byś	.	.
=49	=49	=49	=49	=49	=49	=49	=49	=49
(12FF/L	.	8.ff/L	2a\)	.	4.cc\	ty	.	.
12C/	.	.	.	.	.	.	.	.
12F/J	.	.	.	.	.	.	.	.
.	.	16aa/Jk	.	.	.	.	.	.
4A\)|	.	4aa/	.	.	.	.	.	.
.	.	.	.	.	8cc\	o-	.	.
8c\: 8A\: 8F\: 8C':\	.	8.ff/L	(>4a\	.	8cc\	-puś-	.	.
8r	.	.	.	.	8cc\	-cił	.	.
.	.	16aa/Jk	.	.	.	.	.	.
=50	=50	=50	=50	=50	=50	=50	=50	=50
(12FF/L	.	8.aa/L	2cc\)	.	4cc\	świat	.	.
12C/	.	.	.	.	.	.	.	.
12F/J	.	.	.	.	.	.	.	.
.	.	16ccc/Jk	.	.	.	.	.	.
4A\)	.	4ccc/	.	.	8r	.	.	.
.	.	.	.	.	8cc\	o-	.	.
8c\: 8A\: 8F\: 8C:\	.	8.ccc/L	[4ff\	.	8.a/	-puś-	.	.
8r	.	.	.	.	.	.	.	.
.	.	16fff/Jk)	.	]	16g/	-cił	.	.
=51	=51	=51	=51	=51	=51	=51	=51	=51
!	!	!	!	!LO:DY:t=ppp.	!	!	!	!
2.FF;/	.	2.fff;/	2.ff\]	ppp	2f/	świat...	.	.
*Xped	*	*	*	*	*	*	*	*
.	.	.	.	.	4r;	.	.	.
*	*	*v	*v	*	*	*	*	*
!!LO:LB:g=original
=52	=52	=52	=52	=52	=52	=52	=52
2.r	.	2.r	.	4c/	zwię-	.	.
.	.	.	.	8d/	-dła-	.	.
.	.	.	.	8e/	-bym	.	.
.	.	.	.	8f/	we	.	.
.	.	.	.	8g/	łzach	.	.
=53	=53	=53	=53	=53	=53	=53	=53
2.r	.	2.r	.	8a-X/	i	.	.
.	.	.	.	8b-/	tęsk-	.	.
.	.	.	.	8a-/L	-no-	.	.
.	.	.	.	8f/J	.	.	.
.	.	.	.	8cc\	-cie	.	.
.	.	.	.	8r	.	.	.
=54	=54	=54	=54	=54	=54	=54	=54
!	!	!	!	!	!	!	!LO:DY:rj
4r	.	4r	.	8dd-X\	jak	.	f
.	.	.	.	8cc\	w je-	.	.
!	!	!	!LO:DY:rj	!LO:TX:a:i:t=ralent.	!	!	!
(<4EE/	.	(>4e-X/ 4B-</ 4G-X</	fp	4.ee-X\	-sie-	.	.
4FF/	.	4c/ 4A</ 4F</	.	.	.	.	.
.	.	.	.	16dd-\LL	-ni,	.	.
.	.	.	.	16cc\JJ	.	.	.
=55	=55	=55	=55	=55	=55	=55	=55
4BB-\)	.	4d-X/ 4B-</ 4F</)	.	8.b-/	jak	.	.
.	.	.	.	16f/	w je-	.	.
(4C\	.	[4c</ 4A-</ 4F</	.	4.a-X/	-sie-	.	.
4CC/)	.	4c</] 4G</	.	.	.	.	.
.	.	.	.	8g/	-ni	.	.
=56||	=56||	=56||	=56||	=56||	=56||	=56||	=56||
*k[b-e-a-d-]	*	*k[b-e-a-d-]	*	*k[b-e-a-d-]	*	*	*
*	*	*^	*	*	*	*	*
*	*	*	*ped	*	*	*	*	*
!	!	!	!	!LO:DY:t=ff.:rj	!LO:TX:a:i:t=a tempo.	!	!	!
4FF/ 4FFF/	.	(8.cc/L	4a-\	ff	4f/	kwiat.	.	.
.	.	16aa-/Jk)	.	.	.	.	.	.
4c\ 4A-\ 4F\ 4C\	.	(8.aa-/L	2a-^>\	.	4r	.	.	.
*	*	*	*Xped	*	*	*	*	*
.	.	16gg/Jk)	.	.	.	.	.	.
4c\ 4A-\ 4F\	.	(8.gg/L	.	.	4r	.	.	.
.	.	16ff/Jk)	.	.	.	.	.	.
!!LO:LB:g=original
=57	=57	=57	=57	=57	=57	=57	=57	=57
*ped	*	*	*	*	*	*	*	*
4FF/	.	2.een^^/	8.b-\L 8.g\	.	2.ryy	.	.	.
.	.	.	16dd-\Jk	.	.	.	.	.
*Xped	*	*	*	*	*	*	*	*
4B-\ 4G\ 4F\	.	.	(>8.dd-\L	.	.	.	.	.
.	.	.	16cc\Jk)	.	.	.	.	.
4c\ 4B-\ 4G\ 4F\	.	.	(>8.cc\L	.	.	.	.	.
.	.	.	16b-\Jk)	.	.	.	.	.
=58	=58	=58	=58	=58	=58	=58	=58	=58
*ped	*	*	*	*	*	*	*	*
4FF/	.	8.cc/L	4a-\	.	2.ryy	.	.	.
.	.	16aa-/Jk	.	.	.	.	.	.
*Xped	*	*	*	*	*	*	*	*
4c\ 4A-\ 4F\ 4C\	.	(8.aa-^/L	4cc\ 4a-\	.	.	.	.	.
.	.	16gg/Jk)	.	.	.	.	.	.
4c\ 4A-\ 4F\	.	(8.gg^/L	4cc\ 4a-\	.	.	.	.	.
.	.	16ff/Jk)	.	.	.	.	.	.
=59	=59	=59	=59	=59	=59	=59	=59	=59
*ped	*	*	*	*	*	*	*	*
4FF/	.	2.een^^/	8.b-\L	.	2.ryy	.	.	.
.	.	.	16g\K	.	.	.	.	.
*Xped	*	*	*	*	*	*	*	*
4c\ 4G\ 4F\	.	.	(>8.cc\	.	.	.	.	.
.	.	.	16b-\K	.	.	.	.	.
.	.	.	8qb-/	.	.	.	.	.
4c\ 4B-\ 4F\	.	.	8.a-\	.	.	.	.	.
.	.	.	16g\Jk)	.	.	.	.	.
=60:|!	=60:|!	=60:|!	=60:|!	=60:|!	=60:|!	=60:|!	=60:|!	=60:|!
*>C	*	*>C	*	*	*>C	*	*	*
*ped	*	*	*	*	*	*	*	*
8c\ 8A-\ 8F\	.	(8.ff/L	4a-\	.	2.ryy	.	.	.
8r	.	.	.	.	.	.	.	.
.	.	16cc/Jk)	.	.	.	.	.	.
8A-\ 8AA-\	.	(8.cc/L	4f\	.	.	.	.	.
8r	.	.	.	.	.	.	.	.
.	.	16a-/Jk)	.	.	.	.	.	.
(4C\	.	(8.a-/L	4c\	.	.	.	.	.
.	.	16f/Jk)	.	.	.	.	.	.
*	*	*v	*v	*	*	*	*	*
=61	=61	=61	=61	=61	=61	=61	=61
*Xped	*	*	*	*	*	*	*
8F\)	.	8f/	.	2.ryy	.	.	.
8ryy	.	8r	.	.	.	.	.
4D-\ 4DD-\	.	4f/ 4B-</ 4F</|	.	.	.	.	.
4BB-\ 4BBB-\	.	4f/ 4d-/ 4B-</ 4F</|	.	.	.	.	.
=62	=62	=62	=62	=62	=62	=62	=62
!LO:TX:t=P:problem=dolna oktawa oznaczona cyfrą 8	!	!	!	!	!	!	!
2.FF\ 2.FFF\	.	2.f/ 2.c/ 2.A-</ 2.F<;/	.	2.ryy	.	.	.
==	==	==	==	==	==	==	==
*-	*-	*-	*-	*-	*-	*-	*-
!!!system-decoration: {(s1)<(g1)>}
!!!RDF**kern: > = above
!!!RDF**kern: < = below
!!!RDF**dynam: f = f.
!!!RDF**dynam: p = p.
!!!RDF**kern: | = vertical stroke
!!!ENC: Andrzej Gręziak
!!!END: 2021-08-17
!!!EED: Andrzej Borzym
!!!EEV: 2021-09-23
!!!YEC: Copyright 2022 Narodowy Instytut Fryderyka Chopina (https://polishscores.org)
!!!YEM: License CC-BY-4.0 (https://creativecommons.org/licenses/by/4.0)
